styles/2/Numix/32/places/brown-folder-recent.svg

<?xml version="1.0" encoding="UTF-8" standalone="no"?>
<svg
   xmlns:dc="http://purl.org/dc/elements/1.1/"
   xmlns:cc="http://creativecommons.org/ns#"
   xmlns:rdf="http://www.w3.org/1999/02/22-rdf-syntax-ns#"
   xmlns:svg="http://www.w3.org/2000/svg"
   xmlns="http://www.w3.org/2000/svg"
   xmlns:sodipodi="http://sodipodi.sourceforge.net/DTD/sodipodi-0.dtd"
   xmlns:inkscape="http://www.inkscape.org/namespaces/inkscape"
   width="32"
   height="32"
   viewBox="0 0 32 32"
   id="svg3027"
   version="1.1"
   inkscape:version="0.91 r"
   sodipodi:docname="brown-folder-recent.svg">
  <metadata
     id="metadata3041">
    <rdf:RDF>
      <cc:Work
         rdf:about="">
        <dc:format>image/svg+xml</dc:format>
        <dc:type
           rdf:resource="http://purl.org/dc/dcmitype/StillImage" />
      </cc:Work>
    </rdf:RDF>
  </metadata>
  <defs
     id="defs3039" />
  <sodipodi:namedview
     pagecolor="#ffffff"
     bordercolor="#666666"
     borderopacity="1"
     objecttolerance="10"
     gridtolerance="10"
     guidetolerance="10"
     inkscape:pageopacity="0"
     inkscape:pageshadow="2"
     inkscape:window-width="1280"
     inkscape:window-height="998"
     id="namedview3037"
     showgrid="true"
     inkscape:zoom="14.75"
     inkscape:cx="8.5238682"
     inkscape:cy="13.059628"
     inkscape:window-x="0"
     inkscape:window-y="0"
     inkscape:window-maximized="1"
     inkscape:current-layer="svg3027">
    <inkscape:grid
       type="xygrid"
       id="grid7117" />
  </sodipodi:namedview>
  <path
     style="font-size:medium;font-style:normal;font-variant:normal;font-weight:normal;font-stretch:normal;text-indent:0;text-align:start;text-decoration:none;line-height:normal;letter-spacing:normal;word-spacing:normal;text-transform:none;direction:ltr;block-progression:tb;writing-mode:lr-tb;text-anchor:start;baseline-shift:baseline;color:#000000;fill:#8d6e63;fill-opacity:1;fill-rule:nonzero;stroke:none;stroke-width:1;marker:none;visibility:visible;display:inline;overflow:visible;enable-background:accumulate;font-family:Sans;-inkscape-font-specification:Sans"
     d="m 4,4.0000003 c -0.4916,0 -1,0.4731187 -1,1 l 0,1 c -0.666666,0 -0.833333,0 -1.5,0 -0.979161,0 -1.5,0.4940342 -1.5,1.5 L 0,26.5 C 0,27.531461 0.523069,28 1.5,28 l 28.84375,0 C 31.21572,28 32,27.376781 32,26.5 L 32,9.5000003 c 0,-0.9413229 -0.425107,-1.5 -1.5,-1.5 l -2.5,0 0,-3 c 0,-0.5268813 -0.5084,-1 -1,-1 z"
     id="path3004"
     inkscape:connector-curvature="0"
     sodipodi:nodetypes="ssccssssscccsss" />
  <path
     style="font-size:medium;font-style:normal;font-variant:normal;font-weight:normal;font-stretch:normal;text-indent:0;text-align:start;text-decoration:none;line-height:normal;letter-spacing:normal;word-spacing:normal;text-transform:none;direction:ltr;block-progression:tb;writing-mode:lr-tb;text-anchor:start;baseline-shift:baseline;color:#000000;fill:#000000;fill-opacity:0.32156863;fill-rule:nonzero;stroke:none;stroke-width:1;marker:none;visibility:visible;display:inline;overflow:visible;enable-background:accumulate;font-family:Sans;-inkscape-font-specification:Sans"
     d="m 4,4.0000003 c -0.4916,0 -1,0.4731186 -1,1 l 0,1 c -0.686803,0 -0.883535,0 -1.5,0 -0.979161,0 -1.5,0.4829856 -1.5,1.5 L 0,26.5 C 0,27.503839 0.500972,28 1.5,28 l 28.84375,0 C 31.21572,28 32,27.376781 32,26.5 L 32,9.551777 C 32,8.5377943 31.580916,8.0000003 30.5,8.0000003 l -2.5,0 0,-3 c 0,-0.5268814 -0.5084,-1 -1,-1 z m 15,3 0,2 12,0 L 31,27 1,27 1,7.0000003 z"
     id="path3784"
     inkscape:connector-curvature="0"
     sodipodi:nodetypes="ssccssssscccsssccccccc" />
  <path
     style="opacity:1;fill:#000000;fill-opacity:0.32156864000000002;stroke:none"
     d="m 9,11 0,5 5,0 -2.25,-2.25 C 12.835615,12.663516 14.3427,12 16,12 c 3.313708,0 6,2.686292 6,6 0,3.313708 -2.686292,6 -6,6 -3.313708,0 -6,-2.686292 -6,-6 l -1,0 c 0,3.865993 3.134007,7 7,7 3.865993,0 7,-3.134007 7,-7 0,-3.865993 -3.134007,-7 -7,-7 -1.926075,0 -3.669434,0.801961 -4.9375,2.0625 L 9,11 z m 6.90625,2.46875 A 1.0001,1.0001 0 0 0 15.78125,13.5 1.0001,1.0001 0 0 0 15,14.5 l 0,3.6875 a 1.0001,1.0001 0 0 0 0,0.09375 1.0001,1.0001 0 0 0 0.125,0.75 1.0001,1.0001 0 0 0 0.03125,0.03125 1.0001,1.0001 0 0 0 0.03125,0.0625 1.0001,1.0001 0 0 0 0.03125,0.03125 1.0001,1.0001 0 0 0 0.03125,0.03125 1.0001,1.0001 0 0 0 0.03125,0.03125 1.0001,1.0001 0 0 0 0.03125,0.03125 1.0001,1.0001 0 0 0 0.0625,0.03125 1.0001,1.0001 0 0 0 0.03125,0.03125 1.0001,1.0001 0 0 0 0.03125,0.03125 1.0001,1.0001 0 0 0 0.0625,0.03125 1.0001,1.0001 0 0 0 0.125,0.0625 l 2.46875,1.4375 a 1.0077822,1.0077822 0 1 0 1,-1.75 L 17,17.90625 17,14.5 a 1.0001,1.0001 0 0 0 -1.09375,-1.03125 z"
     id="path4025"
     inkscape:connector-curvature="0" />
</svg>

<svg xmlns="http://www.w3.org/2000/svg" viewBox="0 0 32 32">
 <path d="m 4 4 c -0.492 0 -1 0.473 -1 1 l 0 1 c -0.667 0 -0.833 0 -1.5 0 -0.979 0 -1.5 0.494 -1.5 1.5 l 0 19 c 0 1.031 0.523 1.5 1.5 1.5 l 28.844 0 c 0.872 0 1.656 -0.623 1.656 -1.5 l 0 -17 c 0 -0.941 -0.425 -1.5 -1.5 -1.5 l -2.5 0 0 -3 c 0 -0.527 -0.508 -1 -1 -1 z" style="visibility:visible;fill:#8d6e63;fill-opacity:1;stroke:none;display:inline;color:#000;fill-rule:nonzero"/>
 <path d="m 4 4 c -0.492 0 -1 0.473 -1 1 l 0 1 c -0.687 0 -0.884 0 -1.5 0 -0.979 0 -1.5 0.483 -1.5 1.5 l 0 19 c 0 1 0.501 1.5 1.5 1.5 l 28.844 0 c 0.872 0 1.656 -0.623 1.656 -1.5 l 0 -16.948 c 0 -1.014 -0.419 -1.552 -1.5 -1.552 l -2.5 0 0 -3 c 0 -0.527 -0.508 -1 -1 -1 z m 15 3 0 2 12 0 l 0 18 -30 0 0 -20 z" style="visibility:visible;fill:#000;fill-opacity:0.322;stroke:none;display:inline;color:#000;fill-rule:nonzero"/>
 <path d="m 9 11 0 5 5 0 -2.25 -2.25 c 1.086 -1.086 2.593 -1.75 4.25 -1.75 c 3.314 0 6 2.686 6 6 0 3.314 -2.686 6 -6 6 -3.314 0 -6 -2.686 -6 -6 l -1 0 c 0 3.866 3.134 7 7 7 3.866 0 7 -3.134 7 -7 0 -3.866 -3.134 -7 -7 -7 -1.926 0 -3.669 0.802 -4.938 2.063 l -2.063 -2.063 z m 6.906 2.469 a 1 1 0 0 0 -0.125 0.031 1 1 0 0 0 -0.781 1 l 0 3.688 a 1 1 0 0 0 0 0.094 1 1 0 0 0 0.125 0.75 1 1 0 0 0 0.031 0.031 1 1 0 0 0 0.031 0.063 1 1 0 0 0 0.031 0.031 1 1 0 0 0 0.031 0.031 1 1 0 0 0 0.031 0.031 1 1 0 0 0 0.031 0.031 1 1 0 0 0 0.063 0.031 1 1 0 0 0 0.031 0.031 1 1 0 0 0 0.031 0.031 1 1 0 0 0 0.063 0.031 1 1 0 0 0 0.125 0.063 l 2.469 1.438 a 1.01 1.01 0 1 0 1 -1.75 l -2.094 -1.219 0 -3.406 a 1 1 0 0 0 -1.094 -1.031 z" style="fill:#000;opacity:1;fill-opacity:0.322;stroke:none"/>
</svg>
